X: 8032
T: Connie Flemming's
R: polka
M: 2/4
K: Gmajor
|:G2 GA|Bd e/f/g|B2 B>A|GE ED|
G>F GA|Bd ed|e/f/g/e/ af|g2 g2:|
|:g2 ag/a/|gf ed|B2 B/c/B/A/|GE ED|
G>F GA|B/c/d/B/ ed|e/f/g/e/ af|g2 g2:|

